src/main/resources/icons/AllIcons/scope/problems.svg

<svg xmlns="http://www.w3.org/2000/svg" width="16" height="16" viewBox="0 0 16 16"><rect id="frame" width="16" height="16" fill="none"/><path fill="#F4AF3D" fill-rule="evenodd" d="M8 2l7 12H1L8 2zm1 8V6H7v4h2zm0 3v-2H7v2h2z"/></svg>

<!-- Copyright 2000-2021 JetBrains s.r.o. Use of this source code is governed by the Apache 2.0 license that can be found in the LICENSE file. -->
<svg xmlns="http://www.w3.org/2000/svg" width="16" height="16" viewBox="0 0 16 16">
  <path fill="#F4AF3D" fill-rule="evenodd" d="M8,2 L15,14 L1,14 L8,2 Z M9,10 L9,6 L7,6 L7,10 L9,10 Z M9,13 L9,11 L7,11 L7,13 L9,13 Z"/>
</svg>
